X: 199
T: Tzlil Zugim
O: Israel
C: Emanuel Zamir 1959
D: Israeli Folk Dance Souvenir
M: 2/4
L: 1/8
K: Cdor
Q: 1/4=120
%%MIDI program 73 Flute
%%MIDI bassprog 45 Pizzicato Strings octave=1
%%MIDI bassvol 96
%%MIDI gchord fz
"Cm"C2DE |"F"F2F2 |"Eb"E2G2   |"F"FEF2  |\
"Cm"C2DB,|C2C2    |"Bb"B,A,B,2|"Cm"C2z2 |
C2DE     |"F"F2F2 |"Eb"E2G2   |"F"FEF2  |\
"Gm"GFE2 |"F"F2 F2|"Cm"C2C2   |DB,C2    |z4 |:
"Gm"G2G2 |G4      |"Cm"C2C2   |DB,C2    |\
"Gm"G2G2 |G4      |"Cm"B2AG   |F2 "Gm"G2|z4 :|



